;FLAVOR:Marlin
;TIME:1584
;Filament used: 0.36441m
;Layer height: 0.12
;MINX:108.462
;MINY:108.462
;MINZ:0.3
;MAXX:126.538
;MAXY:126.538
;MAXZ:17.42
;Generated with Cura_SteamEngine 5.2.1
M140 S70
M105
M190 S70
M104 S240
M105
M109 S240
M82 ;absolute extrusion mode
; Ender 3 Custom Start G-code
G92 E0 ; Reset Extruder
G28 ; Home all axes
G1 Z2.0 F3000 ; Move Z Axis up little to prevent scratching of Heat Bed
G1 X0.1 Y20 Z0.3 F5000.0 ; Move to start position
G1 X0.1 Y200.0 Z0.3 F1500.0 E15 ; Draw the first line
G1 X0.4 Y200.0 Z0.3 F5000.0 ; Move to side a little
G1 X0.4 Y20 Z0.3 F1500.0 E30 ; Draw the second line
G92 E0 ; Reset Extruder
G1 Z2.0 F3000 ; Move Z Axis up little to prevent scratching of Heat Bed
G1 X5 Y20 Z0.3 F5000.0 ; Move over to prevent blob squish
G92 E0
G92 E0
G1 F2700 E-5
;LAYER_COUNT:114
;LAYER:0
M107
G0 F6000 X110.696 Y111.52 Z0.3
;TYPE:SKIRT
G1 F2700 E0
G1 F900 X111.52 Y110.696 E0.04121
G1 X111.991 Y110.31 E0.06274
G1 X112.967 Y109.658 E0.10424
G1 X113.505 Y109.371 E0.1258
G1 X114.581 Y108.926 E0.16697
G1 X115.164 Y108.749 E0.18852
G1 X116.314 Y108.521 E0.22997
G1 X116.918 Y108.462 E0.25143
G1 X118.082 Y108.462 E0.29259
G1 X118.686 Y108.521 E0.31405
G1 X119.836 Y108.749 E0.35551
G1 X120.419 Y108.926 E0.37705
G1 X121.495 Y109.371 E0.41822
G1 X122.033 Y109.658 E0.43978
G1 X123.009 Y110.31 E0.48129
G1 X123.48 Y110.696 E0.50282
G1 X124.304 Y111.52 E0.54402
G1 X124.69 Y111.991 E0.56556
G1 X125.342 Y112.967 E0.60706
G1 X125.629 Y113.505 E0.62862
G1 X126.074 Y114.581 E0.66979
G1 X126.251 Y115.164 E0.69134
G1 X126.479 Y116.314 E0.73279
G1 X126.538 Y116.918 E0.75425
G1 X126.538 Y118.082 E0.79541
G1 X126.479 Y118.686 E0.81687
G1 X126.251 Y119.836 E0.85832
G1 X126.074 Y120.419 E0.87987
G1 X125.629 Y121.495 E0.92104
G1 X125.342 Y122.033 E0.9426
G1 X124.69 Y123.009 E0.9841
G1 X124.304 Y123.48 E1.00564
G1 X123.48 Y124.304 E1.04684
G1 X123.009 Y124.69 E1.06837
G1 X122.033 Y125.342 E1.10988
G1 X121.495 Y125.629 E1.13144
G1 X120.419 Y126.074 E1.17261
G1 X119.836 Y126.251 E1.19416
G1 X118.686 Y126.479 E1.23561
G1 X118.082 Y126.538 E1.25707
G1 X116.918 Y126.538 E1.29823
G1 X116.314 Y126.479 E1.31969
G1 X115.164 Y126.251 E1.36114
G1 X114.581 Y126.074 E1.38269
G1 X113.505 Y125.629 E1.42386
G1 X112.967 Y125.342 E1.44542
G1 X111.991 Y124.69 E1.48692
G1 X111.52 Y124.304 E1.50846
G1 X110.696 Y123.48 E1.54966
G1 X110.31 Y123.009 E1.57119
G1 X109.658 Y122.033 E1.6127
G1 X109.371 Y121.495 E1.63426
G1 X108.926 Y120.419 E1.67543
G1 X108.749 Y119.836 E1.69697
G1 X108.521 Y118.686 E1.73843
G1 X108.462 Y118.082 E1.75989
G1 X108.462 Y116.918 E1.80105
G1 X108.521 Y116.314 E1.82251
G1 X108.749 Y115.164 E1.86396
G1 X108.926 Y114.581 E1.8855
G1 X109.371 Y113.505 E1.92668
G1 X109.658 Y112.967 E1.94824
G1 X110.31 Y111.991 E1.98974
G1 X110.696 Y111.52 E2.01127
G0 F6000 X110.887 Y111.711
G1 F900 X111.711 Y110.887 E2.05248
G1 X112.141 Y110.535 E2.07213
G1 X113.117 Y109.883 E2.11363
G1 X113.609 Y109.62 E2.13336
G1 X114.685 Y109.175 E2.17453
G1 X115.217 Y109.014 E2.19418
G1 X116.367 Y108.786 E2.23564
G1 X116.918 Y108.732 E2.25522
G1 X118.082 Y108.732 E2.29638
G1 X118.633 Y108.786 E2.31595
G1 X119.783 Y109.014 E2.35741
G1 X120.315 Y109.175 E2.37706
G1 X121.391 Y109.62 E2.41823
G1 X121.883 Y109.883 E2.43796
G1 X122.859 Y110.535 E2.47946
G1 X123.289 Y110.887 E2.49911
G1 X124.113 Y111.711 E2.54032
G1 X124.465 Y112.141 E2.55997
G1 X125.117 Y113.117 E2.60147
G1 X125.38 Y113.609 E2.6212
G1 X125.825 Y114.685 E2.66237
G1 X125.986 Y115.217 E2.68202
G1 X126.214 Y116.367 E2.72348
G1 X126.268 Y116.918 E2.74305
G1 X126.268 Y118.082 E2.78421
G1 X126.214 Y118.633 E2.80379
G1 X125.986 Y119.783 E2.84524
G1 X125.825 Y120.315 E2.8649
G1 X125.38 Y121.391 E2.90607
G1 X125.117 Y121.883 E2.9258
G1 X124.465 Y122.859 E2.9673
G1 X124.113 Y123.289 E2.98695
G1 X123.289 Y124.113 E3.02816
G1 X122.859 Y124.465 E3.0478
G1 X121.883 Y125.117 E3.08931
G1 X121.391 Y125.38 E3.10903
G1 X120.315 Y125.825 E3.15021
G1 X119.783 Y125.986 E3.16986
G1 X118.633 Y126.214 E3.21132
G1 X118.082 Y126.268 E3.23089
G1 X116.918 Y126.268 E3.27205
G1 X116.367 Y126.214 E3.29163
G1 X115.217 Y125.986 E3.33308
G1 X114.685 Y125.825 E3.35274
G1 X113.609 Y125.38 E3.39391
G1 X113.117 Y125.117 E3.41364
G1 X112.141 Y124.465 E3.45514
G1 X111.711 Y124.113 E3.47479
G1 X110.887 Y123.289 E3.51599
G1 X110.535 Y122.859 E3.53564
G1 X109.883 Y121.883 E3.57715
G1 X109.62 Y121.391 E3.59687
G1 X109.175 Y120.315 E3.63805
G1 X109.014 Y119.783 E3.6577
G1 X108.786 Y118.633 E3.69915
G1 X108.732 Y118.082 E3.71873
G1 X108.732 Y116.918 E3.75989
G1 X108.786 Y116.367 E3.77947
G1 X109.014 Y115.217 E3.82092
G1 X109.175 Y114.685 E3.84058
G1 X109.62 Y113.609 E3.88175
G1 X109.883 Y113.117 E3.90147
G1 X110.535 Y112.141 E3.94298
G1 X110.887 Y111.711 E3.96263
G0 F6000 X111.078 Y111.902
G1 F900 X111.902 Y111.078 E4.00383
G1 X112.291 Y110.759 E4.02162
G1 X113.267 Y110.107 E4.06312
G1 X113.712 Y109.87 E4.08095
G1 X114.788 Y109.425 E4.12212
G1 X115.269 Y109.279 E4.1399
G1 X116.419 Y109.051 E4.18135
G1 X116.918 Y109.002 E4.19908
G1 X118.082 Y109.002 E4.24024
G1 X118.581 Y109.051 E4.25797
G1 X119.731 Y109.279 E4.29943
G1 X120.212 Y109.425 E4.3172
G1 X121.288 Y109.87 E4.35837
G1 X121.733 Y110.107 E4.3762
G1 X122.709 Y110.759 E4.4177
G1 X123.098 Y111.078 E4.43549
G1 X123.922 Y111.902 E4.4767
G1 X124.241 Y112.291 E4.49449
G1 X124.893 Y113.267 E4.53599
G1 X125.13 Y113.712 E4.55382
G1 X125.575 Y114.788 E4.59499
G1 X125.721 Y115.269 E4.61276
G1 X125.949 Y116.419 E4.65422
G1 X125.998 Y116.918 E4.67195
G1 X125.998 Y118.082 E4.71311
G1 X125.949 Y118.581 E4.73083
G1 X125.721 Y119.731 E4.77229
G1 X125.575 Y120.212 E4.79006
G1 X125.13 Y121.288 E4.83124
G1 X124.893 Y121.733 E4.84906
G1 X124.241 Y122.709 E4.89057
G1 X123.922 Y123.098 E4.90836
G1 X123.098 Y123.922 E4.94956
G1 X122.709 Y124.241 E4.96735
G1 X121.733 Y124.893 E5.00885
G1 X121.288 Y125.13 E5.02668
G1 X120.212 Y125.575 E5.06785
G1 X119.731 Y125.721 E5.08563
G1 X118.581 Y125.949 E5.12708
G1 X118.082 Y125.998 E5.14481
G1 X116.918 Y125.998 E5.18597
G1 X116.419 Y125.949 E5.2037
G1 X115.269 Y125.721 E5.24515
G1 X114.788 Y125.575 E5.26293
G1 X113.712 Y125.13 E5.3041
G1 X113.267 Y124.893 E5.32193
G1 X112.291 Y124.241 E5.36343
G1 X111.902 Y123.922 E5.38122
G1 X111.078 Y123.098 E5.42243
G1 X110.759 Y122.709 E5.44021
G1 X110.107 Y121.733 E5.48172
G1 X109.87 Y121.288 E5.49954
G1 X109.425 Y120.212 E5.54072
G1 X109.279 Y119.731 E5.55849
G1 X109.051 Y118.581 E5.59995
G1 X109.002 Y118.082 E5.61768
G1 X109.002 Y116.918 E5.65883
G1 X109.051 Y116.419 E5.67656
G1 X109.279 Y115.269 E5.71802
G1 X109.425 Y114.788 E5.73579
G1 X109.87 Y113.712 E5.77697
G1 X110.107 Y113.267 E5.79479
G1 X110.759 Y112.291 E5.8363
G1 X111.078 Y111.902 E5.85409
G0 F6000 X111.269 Y112.093
G1 F900 X112.093 Y111.269 E5.89529
G1 X112.441 Y110.984 E5.9112
G1 X113.417 Y110.332 E5.9527
G1 X113.815 Y110.119 E5.96866
G1 X114.891 Y109.674 E6.00983
G1 X115.322 Y109.544 E6.02575
G1 X116.472 Y109.316 E6.06721
G1 X116.918 Y109.272 E6.08305
G1 X118.082 Y109.272 E6.12421
G1 X118.528 Y109.316 E6.14006
G1 X119.678 Y109.544 E6.18151
G1 X120.109 Y109.674 E6.19743
G1 X121.185 Y110.119 E6.2386
G1 X121.583 Y110.332 E6.25457
G1 X122.559 Y110.984 E6.29607
G1 X122.907 Y111.269 E6.31197
G1 X123.731 Y112.093 E6.35318
G1 X124.016 Y112.441 E6.36908
G1 X124.668 Y113.417 E6.41059
G1 X124.881 Y113.815 E6.42655
G1 X125.326 Y114.891 E6.46772
G1 X125.456 Y115.322 E6.48364
G1 X125.684 Y116.472 E6.5251
G1 X125.728 Y116.918 E6.54094
G1 X125.728 Y118.082 E6.5821
G1 X125.684 Y118.528 E6.59795
G1 X125.456 Y119.678 E6.6394
G1 X125.326 Y120.109 E6.65532
G1 X124.881 Y121.185 E6.69649
G1 X124.668 Y121.583 E6.71246
G1 X124.016 Y122.559 E6.75396
G1 X123.731 Y122.907 E6.76986
G1 X122.907 Y123.731 E6.81107
G1 X122.559 Y124.016 E6.82697
G1 X121.583 Y124.668 E6.86848
G1 X121.185 Y124.881 E6.88444
G1 X120.109 Y125.326 E6.92561
G1 X119.678 Y125.456 E6.94153
G1 X118.528 Y125.684 E6.98299
G1 X118.082 Y125.728 E6.99883
G1 X116.918 Y125.728 E7.03999
G1 X116.472 Y125.684 E7.05584
G1 X115.322 Y125.456 E7.09729
G1 X114.891 Y125.326 E7.11321
G1 X113.815 Y124.881 E7.15438
G1 X113.417 Y124.668 E7.17035
G1 X112.441 Y124.016 E7.21185
G1 X112.093 Y123.731 E7.22775
G1 X111.269 Y122.907 E7.26896
G1 X110.984 Y122.559 E7.28486
G1 X110.332 Y121.583 E7.32637
G1 X110.119 Y121.185 E7.34233
G1 X109.674 Y120.109 E7.3835
G1 X109.544 Y119.678 E7.39942
G1 X109.316 Y118.528 E7.44087
G1 X109.272 Y118.082 E7.45672
G1 X109.272 Y116.918 E7.49788
G1 X109.316 Y116.472 E7.51373
G1 X109.544 Y115.322 E7.55518
G1 X109.674 Y114.891 E7.5711
G1 X110.119 Y113.815 E7.61227
G1 X110.332 Y113.417 E7.62823
G1 X110.984 Y112.441 E7.66974
G1 X111.269 Y112.093 E7.68564
G0 F6000 X111.46 Y112.284
G1 F900 X112.284 Y111.46 E7.72685
G1 X112.591 Y111.208 E7.74089
G1 X113.567 Y110.556 E7.7824
G1 X113.918 Y110.369 E7.79646
G1 X114.994 Y109.924 E7.83763
G1 X115.374 Y109.809 E7.85167
G1 X116.524 Y109.581 E7.89312
G1 X116.918 Y109.542 E7.90712
G1 X118.082 Y109.542 E7.94828
G1 X118.476 Y109.581 E7.96228
G1 X119.626 Y109.809 E8.00374
G1 X120.006 Y109.924 E8.01778
G1 X121.082 Y110.369 E8.05895
G1 X121.433 Y110.556 E8.07301
G1 X122.409 Y111.208 E8.11452
G1 X122.716 Y111.46 E8.12856
G1 X123.54 Y112.284 E8.16976
G1 X123.792 Y112.591 E8.18381
G1 X124.444 Y113.567 E8.22531
G1 X124.631 Y113.918 E8.23937
G1 X125.076 Y114.994 E8.28055
G1 X125.191 Y115.374 E8.29459
G1 X125.419 Y116.524 E8.33604
G1 X125.458 Y116.918 E8.35004
G1 X125.458 Y118.082 E8.3912
G1 X125.419 Y118.476 E8.4052
G1 X125.191 Y119.626 E8.44665
G1 X125.076 Y120.006 E8.46069
G1 X124.631 Y121.082 E8.50186
G1 X124.444 Y121.433 E8.51593
G1 X123.792 Y122.409 E8.55743
G1 X123.54 Y122.716 E8.57148
G1 X122.716 Y123.54 E8.61268
G1 X122.409 Y123.792 E8.62672
G1 X121.433 Y124.444 E8.66823
G1 X121.082 Y124.631 E8.68229
G1 X120.006 Y125.076 E8.72346
G1 X119.626 Y125.191 E8.7375
G1 X118.476 Y125.419 E8.77896
G1 X118.082 Y125.458 E8.79296
G1 X116.918 Y125.458 E8.83411
G1 X116.524 Y125.419 E8.84811
G1 X115.374 Y125.191 E8.88957
G1 X114.994 Y125.076 E8.90361
G1 X113.918 Y124.631 E8.94478
G1 X113.567 Y124.444 E8.95884
G1 X112.591 Y123.792 E9.00035
G1 X112.284 Y123.54 E9.01439
G1 X111.46 Y122.716 E9.0556
G1 X111.208 Y122.409 E9.06964
G1 X110.556 Y121.433 E9.11114
G1 X110.369 Y121.082 E9.12521
G1 X109.924 Y120.006 E9.16638
G1 X109.809 Y119.626 E9.18042
G1 X109.581 Y118.476 E9.22187
G1 X109.542 Y118.082 E9.23587
G1 X109.542 Y116.918 E9.27703
G1 X109.581 Y116.524 E9.29103
G1 X109.809 Y115.374 E9.33249
G1 X109.924 Y114.994 E9.34652
G1 X110.369 Y113.918 E9.3877
G1 X110.556 Y113.567 E9.40176
G1 X111.208 Y112.591 E9.44326
G1 X111.46 Y112.284 E9.45731
G0 F6000 X111.651 Y112.475
G1 F900 X112.475 Y111.651 E9.49851
G1 X112.741 Y111.433 E9.51067
G1 X113.717 Y110.781 E9.55218
G1 X114.021 Y110.618 E9.56437
G1 X115.097 Y110.173 E9.60555
G1 X115.427 Y110.074 E9.61773
G1 X116.577 Y109.846 E9.65918
G1 X116.918 Y109.812 E9.6713
G1 X118.082 Y109.812 E9.71246
G1 X118.423 Y109.846 E9.72458
G1 X119.573 Y110.074 E9.76603
G1 X119.903 Y110.173 E9.77821
G1 X120.979 Y110.618 E9.81939
G1 X121.283 Y110.781 E9.83158
G1 X122.259 Y111.433 E9.87309
G1 X122.525 Y111.651 E9.88525
G1 X123.349 Y112.475 E9.92645
G1 X123.567 Y112.741 E9.93861
G1 X124.219 Y113.717 E9.98012
G1 X124.382 Y114.021 E9.99231
G1 X124.827 Y115.097 E10.03349
G1 X124.926 Y115.427 E10.04567
G1 X125.154 Y116.577 E10.08712
G1 X125.188 Y116.918 E10.09924
G1 X125.188 Y118.082 E10.1404
G1 X125.154 Y118.423 E10.15252
G1 X124.926 Y119.573 E10.19397
G1 X124.827 Y119.903 E10.20616
G1 X124.382 Y120.979 E10.24733
G1 X124.219 Y121.283 E10.25952
G1 X123.567 Y122.259 E10.30103
G1 X123.349 Y122.525 E10.31319
G1 X122.525 Y123.349 E10.35439
G1 X122.259 Y123.567 E10.36655
G1 X121.283 Y124.219 E10.40806
G1 X120.979 Y124.382 E10.42026
G1 X119.903 Y124.827 E10.46143
G1 X119.573 Y124.926 E10.47361
G1 X118.423 Y125.154 E10.51507
G1 X118.082 Y125.188 E10.52718
G1 X116.918 Y125.188 E10.56834
G1 X116.577 Y125.154 E10.58046
G1 X115.427 Y124.926 E10.62191
G1 X115.097 Y124.827 E10.6341
G1 X114.021 Y124.382 E10.67527
G1 X113.717 Y124.219 E10.68747
G1 X112.741 Y123.567 E10.72897
G1 X112.475 Y123.349 E10.74113
G1 X111.651 Y122.525 E10.78233
G1 X111.433 Y122.259 E10.7945
G1 X110.781 Y121.283 E10.836
G1 X110.618 Y120.979 E10.8482
G1 X110.173 Y119.903 E10.88937
G1 X110.074 Y119.573 E10.90155
G1 X109.846 Y118.423 E10.94301
G1 X109.812 Y118.082 E10.95512
G1 X109.812 Y116.918 E10.99628
G1 X109.846 Y116.577 E11.0084
G1 X110.074 Y115.427 E11.04985
G1 X110.173 Y115.097 E11.06204
G1 X110.618 Y114.021 E11.10321
G1 X110.781 Y113.717 E11.11541
G1 X111.433 Y112.741 E11.15691
G1 X111.651 Y112.475 E11.16907
G0 F6000 X111.842 Y112.666
G1 F900 X112.666 Y111.842 E11.21028
G1 X112.891 Y111.657 E11.22058
G1 X113.867 Y111.005 E11.26208
G1 X114.124 Y110.868 E11.27238
G1 X115.2 Y110.423 E11.31355
G1 X115.479 Y110.338 E11.32386
G1 X116.629 Y110.11 E11.36532
G1 X116.918 Y110.082 E11.37558
G1 X118.082 Y110.082 E11.41674
G1 X118.371 Y110.11 E11.42701
G1 X119.521 Y110.338 E11.46847
G1 X119.8 Y110.423 E11.47878
G1 X120.876 Y110.868 E11.51995
G1 X121.133 Y111.005 E11.53025
G1 X122.109 Y111.657 E11.57175
G1 X122.334 Y111.842 E11.58205
G1 X123.158 Y112.666 E11.62326
G1 X123.343 Y112.891 E11.63356
G1 X123.995 Y113.867 E11.67506
G1 X124.132 Y114.124 E11.68536
G1 X124.577 Y115.2 E11.72653
G1 X124.662 Y115.479 E11.73684
G1 X124.89 Y116.629 E11.7783
G1 X124.918 Y116.918 E11.78857
G1 X124.918 Y118.082 E11.82972
G1 X124.89 Y118.371 E11.83999
G1 X124.662 Y119.521 E11.88145
G1 X124.577 Y119.8 E11.89176
G1 X124.132 Y120.876 E11.93293
G1 X123.995 Y121.133 E11.94323
G1 X123.343 Y122.109 E11.98473
G1 X123.158 Y122.334 E11.99503
G1 X122.334 Y123.158 E12.03624
G1 X122.109 Y123.343 E12.04654
G1 X121.133 Y123.995 E12.08804
G1 X120.876 Y124.132 E12.09834
G1 X119.8 Y124.577 E12.13951
G1 X119.521 Y124.662 E12.14982
G1 X118.371 Y124.89 E12.19128
G1 X118.082 Y124.918 E12.20155
G1 X116.918 Y124.918 E12.2427
G1 X116.629 Y124.89 E12.25297
G1 X115.479 Y124.662 E12.29443
G1 X115.2 Y124.577 E12.30474
G1 X114.124 Y124.132 E12.34591
G1 X113.867 Y123.995 E12.35621
G1 X112.891 Y123.343 E12.39771
G1 X112.666 Y123.158 E12.40801
G1 X111.842 Y122.334 E12.44922
G1 X111.657 Y122.109 E12.45952
G1 X111.005 Y121.133 E12.50102
G1 X110.868 Y120.876 E12.51132
G1 X110.423 Y119.8 E12.55249
G1 X110.338 Y119.521 E12.56281
G1 X110.11 Y118.371 E12.60426
G1 X110.082 Y118.082 E12.61453
G1 X110.082 Y116.918 E12.65569
G1 X110.11 Y116.629 E12.66595
G1 X110.338 Y115.479 E12.70741
G1 X110.423 Y115.2 E12.71772
G1 X110.868 Y114.124 E12.75889
G1 X111.005 Y113.867 E12.76919
G1 X111.657 Y112.891 E12.81069
G1 X111.842 Y112.666 E12.82099
G0 F6000 X111.949 Y112.941
G1 F900 X112.941 Y111.949 E12.8706
G1 X114.118 Y111.162 E12.92067
G1 X115.415 Y110.626 E12.97029
G1 X116.798 Y110.352 E13.02014
G1 X118.202 Y110.352 E13.06979
G1 X119.585 Y110.626 E13.11964
G1 X120.882 Y111.162 E13.16926
G1 X122.059 Y111.949 E13.21933
G1 X123.051 Y112.941 E13.26893
G1 X123.838 Y114.118 E13.319
G1 X124.374 Y115.415 E13.36862
G1 X124.648 Y116.798 E13.41848
G1 X124.648 Y118.202 E13.46812
G1 X124.374 Y119.585 E13.51797
G1 X123.838 Y120.882 E13.5676
G1 X123.051 Y122.059 E13.61766
G1 X122.059 Y123.051 E13.66727
G1 X120.882 Y123.838 E13.71733
G1 X119.585 Y124.374 E13.76696
G1 X118.202 Y124.648 E13.81681
G1 X116.798 Y124.648 E13.86645
G1 X115.415 Y124.374 E13.91631
G1 X114.118 Y123.838 E13.96593
G1 X112.941 Y123.051 E14.01599
G1 X111.949 Y122.059 E14.0656
G1 X111.162 Y120.882 E14.11567
G1 X110.626 Y119.585 E14.16529
G1 X110.352 Y118.202 E14.21514
G1 X110.352 Y116.798 E14.26479
G1 X110.626 Y115.415 E14.31464
G1 X111.162 Y114.118 E14.36426
G1 X111.949 Y112.941 E14.41433
G0 F6000 X112.156 Y113.116
G1 F900 X113.116 Y112.156 E14.46233
G1 X114.242 Y111.404 E14.51021
G1 X115.495 Y110.886 E14.55815
G1 X116.825 Y110.622 E14.6061
G1 X118.175 Y110.622 E14.65384
G1 X119.505 Y110.886 E14.70178
G1 X120.758 Y111.404 E14.74972
G1 X121.884 Y112.156 E14.7976
G1 X122.844 Y113.116 E14.84561
G1 X123.596 Y114.242 E14.89349
G1 X124.114 Y115.495 E14.94143
G1 X124.378 Y116.825 E14.98937
G1 X124.378 Y118.175 E15.03711
