;FLAVOR:Marlin
;TIME:4313
;Filament used: 1.30918m
;Layer height: 0.12
;MINX:100.962
;MINY:93.462
;MINZ:0.3
;MAXX:134.038
;MAXY:141.538
;MAXZ:17.42
;Generated with Cura_SteamEngine 5.2.1
M140 S70
M105
M190 S70
M104 S240
M105
M109 S240
M82 ;absolute extrusion mode
; Ender 3 Custom Start G-code
G92 E0 ; Reset Extruder
G28 ; Home all axes
G1 Z2.0 F3000 ; Move Z Axis up little to prevent scratching of Heat Bed
G1 X0.1 Y20 Z0.3 F5000.0 ; Move to start position
G1 X0.1 Y200.0 Z0.3 F1500.0 E15 ; Draw the first line
G1 X0.4 Y200.0 Z0.3 F5000.0 ; Move to side a little
G1 X0.4 Y20 Z0.3 F1500.0 E30 ; Draw the second line
G92 E0 ; Reset Extruder
G1 Z2.0 F3000 ; Move Z Axis up little to prevent scratching of Heat Bed
G1 X5 Y20 Z0.3 F5000.0 ; Move over to prevent blob squish
G92 E0
G92 E0
G1 F2700 E-5
;LAYER_COUNT:114
;LAYER:0
M107
G0 F6000 X103.196 Y96.52 Z0.3
;TYPE:SKIRT
G1 F2700 E0
G1 F900 X104.02 Y95.696 E0.04121
G1 X104.491 Y95.31 E0.06274
G1 X105.467 Y94.658 E0.10424
G1 X106.005 Y94.371 E0.1258
G1 X107.081 Y93.926 E0.16697
G1 X107.664 Y93.749 E0.18852
G1 X108.814 Y93.521 E0.22997
G1 X109.418 Y93.462 E0.25143
G1 X110.582 Y93.462 E0.29259
G1 X111.186 Y93.521 E0.31405
G1 X112.336 Y93.749 E0.35551
G1 X112.919 Y93.926 E0.37705
G1 X113.995 Y94.371 E0.41822
G1 X114.533 Y94.658 E0.43978
G1 X115.509 Y95.31 E0.48129
G1 X115.98 Y95.696 E0.50282
G1 X116.804 Y96.52 E0.54402
G1 X117.19 Y96.991 E0.56556
G1 X117.842 Y97.967 E0.60706
G1 X118.129 Y98.505 E0.62862
G1 X118.574 Y99.581 E0.66979
G1 X118.751 Y100.164 E0.69134
G1 X118.979 Y101.314 E0.73279
G1 X119.038 Y101.918 E0.75425
G1 X119.038 Y103.082 E0.79541
G1 X118.979 Y103.686 E0.81687
G1 X118.751 Y104.836 E0.85832
G1 X118.574 Y105.419 E0.87987
G1 X118.129 Y106.495 E0.92104
G1 X117.842 Y107.033 E0.9426
G1 X117.19 Y108.009 E0.9841
G1 X116.804 Y108.48 E1.00564
G1 X115.98 Y109.304 E1.04684
G1 X115.509 Y109.69 E1.06837
G1 X115.045 Y110 E1.08811
G1 X115.509 Y110.31 E1.10784
G1 X115.98 Y110.696 E1.12937
G1 X116.804 Y111.52 E1.17058
G1 X117.19 Y111.991 E1.19211
G1 X117.5 Y112.455 E1.21184
G1 X117.81 Y111.991 E1.23157
G1 X118.196 Y111.52 E1.25311
G1 X119.02 Y110.696 E1.29431
G1 X119.491 Y110.31 E1.31584
G1 X120.467 Y109.658 E1.35735
G1 X121.005 Y109.371 E1.37891
G1 X122.081 Y108.926 E1.42008
G1 X122.664 Y108.749 E1.44162
G1 X123.814 Y108.521 E1.48308
G1 X124.418 Y108.462 E1.50454
G1 X125.582 Y108.462 E1.5457
G1 X126.186 Y108.521 E1.56716
G1 X127.336 Y108.749 E1.60861
G1 X127.919 Y108.926 E1.63015
G1 X128.995 Y109.371 E1.67133
G1 X129.533 Y109.658 E1.69289
G1 X130.509 Y110.31 E1.73439
G1 X130.98 Y110.696 E1.75592
G1 X131.804 Y111.52 E1.79713
G1 X132.19 Y111.991 E1.81866
G1 X132.842 Y112.967 E1.86016
G1 X133.129 Y113.505 E1.88173
G1 X133.574 Y114.581 E1.9229
G1 X133.751 Y115.164 E1.94444
G1 X133.979 Y116.314 E1.9859
G1 X134.038 Y116.918 E2.00736
G1 X134.038 Y118.082 E2.04851
G1 X133.979 Y118.686 E2.06997
G1 X133.751 Y119.836 E2.11143
G1 X133.574 Y120.419 E2.13297
G1 X133.129 Y121.495 E2.17415
G1 X132.842 Y122.033 E2.19571
G1 X132.19 Y123.009 E2.23721
G1 X131.804 Y123.48 E2.25874
G1 X130.98 Y124.304 E2.29995
G1 X130.509 Y124.69 E2.32148
G1 X130.045 Y125 E2.34121
G1 X130.509 Y125.31 E2.36094
G1 X130.98 Y125.696 E2.38248
G1 X131.804 Y126.52 E2.42368
G1 X132.19 Y126.991 E2.44521
G1 X132.842 Y127.967 E2.48672
G1 X133.129 Y128.505 E2.50828
G1 X133.574 Y129.581 E2.54945
G1 X133.751 Y130.164 E2.57099
G1 X133.979 Y131.314 E2.61245
G1 X134.038 Y131.918 E2.63391
G1 X134.038 Y133.082 E2.67507
G1 X133.979 Y133.686 E2.69653
G1 X133.751 Y134.836 E2.73798
G1 X133.574 Y135.419 E2.75953
G1 X133.129 Y136.495 E2.8007
G1 X132.842 Y137.033 E2.82226
G1 X132.19 Y138.009 E2.86376
G1 X131.804 Y138.48 E2.88529
G1 X130.98 Y139.304 E2.9265
G1 X130.509 Y139.69 E2.94803
G1 X129.533 Y140.342 E2.98954
G1 X128.995 Y140.629 E3.0111
G1 X127.919 Y141.074 E3.05227
G1 X127.336 Y141.251 E3.07381
G1 X126.186 Y141.479 E3.11527
G1 X125.582 Y141.538 E3.13673
G1 X124.418 Y141.538 E3.17789
G1 X123.814 Y141.479 E3.19934
G1 X122.664 Y141.251 E3.2408
G1 X122.081 Y141.074 E3.26234
G1 X121.005 Y140.629 E3.30352
G1 X120.467 Y140.342 E3.32508
G1 X119.491 Y139.69 E3.36658
G1 X119.02 Y139.304 E3.38811
G1 X118.196 Y138.48 E3.42932
G1 X117.81 Y138.009 E3.45085
G1 X117.158 Y137.033 E3.49235
G1 X116.871 Y136.495 E3.51392
G1 X116.426 Y135.419 E3.55509
G1 X116.249 Y134.836 E3.57663
G1 X116.021 Y133.686 E3.61809
G1 X115.962 Y133.082 E3.63955
G1 X115.962 Y131.918 E3.6807
G1 X116.021 Y131.314 E3.70216
G1 X116.249 Y130.164 E3.74362
G1 X116.426 Y129.581 E3.76516
G1 X116.871 Y128.505 E3.80633
G1 X117.158 Y127.967 E3.8279
G1 X117.81 Y126.991 E3.8694
G1 X118.196 Y126.52 E3.89093
G1 X119.02 Y125.696 E3.93214
G1 X119.491 Y125.31 E3.95367
G1 X119.955 Y125 E3.9734
G1 X119.491 Y124.69 E3.99313
G1 X119.02 Y124.304 E4.01467
G1 X118.196 Y123.48 E4.05587
G1 X117.81 Y123.009 E4.0774
G1 X117.5 Y122.545 E4.09714
G1 X117.19 Y123.009 E4.11687
G1 X116.804 Y123.48 E4.1384
G1 X115.98 Y124.304 E4.1796
G1 X115.509 Y124.69 E4.20114
G1 X114.533 Y125.342 E4.24264
G1 X113.995 Y125.629 E4.2642
G1 X112.919 Y126.074 E4.30537
G1 X112.336 Y126.251 E4.32692
G1 X111.186 Y126.479 E4.36837
G1 X110.582 Y126.538 E4.38983
G1 X109.418 Y126.538 E4.43099
G1 X108.814 Y126.479 E4.45245
G1 X107.664 Y126.251 E4.49391
G1 X107.081 Y126.074 E4.51545
G1 X106.005 Y125.629 E4.55662
G1 X105.467 Y125.342 E4.57818
G1 X104.491 Y124.69 E4.61969
G1 X104.02 Y124.304 E4.64122
G1 X103.196 Y123.48 E4.68242
G1 X102.81 Y123.009 E4.70396
G1 X102.158 Y122.033 E4.74546
G1 X101.871 Y121.495 E4.76702
G1 X101.426 Y120.419 E4.80819
G1 X101.249 Y119.836 E4.82974
G1 X101.021 Y118.686 E4.87119
G1 X100.962 Y118.082 E4.89265
G1 X100.962 Y116.918 E4.93381
G1 X101.021 Y116.314 E4.95527
G1 X101.249 Y115.164 E4.99672
G1 X101.426 Y114.581 E5.01827
G1 X101.871 Y113.505 E5.05944
G1 X102.158 Y112.967 E5.081
G1 X102.81 Y111.991 E5.1225
G1 X103.196 Y111.52 E5.14404
G1 X104.02 Y110.696 E5.18524
G1 X104.491 Y110.31 E5.20677
G1 X104.955 Y110 E5.22651
G1 X104.491 Y109.69 E5.24624
G1 X104.02 Y109.304 E5.26777
G1 X103.196 Y108.48 E5.30898
G1 X102.81 Y108.009 E5.33051
G1 X102.158 Y107.033 E5.37201
G1 X101.871 Y106.495 E5.39357
G1 X101.426 Y105.419 E5.43475
G1 X101.249 Y104.836 E5.45629
G1 X101.021 Y103.686 E5.49774
G1 X100.962 Y103.082 E5.5192
G1 X100.962 Y101.918 E5.56036
G1 X101.021 Y101.314 E5.58182
G1 X101.249 Y100.164 E5.62328
G1 X101.426 Y99.581 E5.64482
G1 X101.871 Y98.505 E5.68599
G1 X102.158 Y97.967 E5.70755
G1 X102.81 Y96.991 E5.74906
G1 X103.196 Y96.52 E5.77059
G0 F6000 X103.387 Y96.711
G1 F900 X104.211 Y95.887 E5.81179
G1 X104.641 Y95.535 E5.83144
G1 X105.617 Y94.883 E5.87295
G1 X106.109 Y94.62 E5.89267
G1 X107.185 Y94.175 E5.93385
G1 X107.717 Y94.014 E5.9535
G1 X108.867 Y93.786 E5.99496
G1 X109.418 Y93.732 E6.01453
G1 X110.582 Y93.732 E6.05569
G1 X111.133 Y93.786 E6.07527
G1 X112.283 Y94.014 E6.11672
G1 X112.815 Y94.175 E6.13638
G1 X113.891 Y94.62 E6.17755
G1 X114.383 Y94.883 E6.19727
G1 X115.359 Y95.535 E6.23878
G1 X115.789 Y95.887 E6.25843
G1 X116.613 Y96.711 E6.29963
G1 X116.965 Y97.141 E6.31928
G1 X117.617 Y98.117 E6.36079
G1 X117.88 Y98.609 E6.38051
G1 X118.325 Y99.685 E6.42168
G1 X118.486 Y100.217 E6.44134
G1 X118.714 Y101.367 E6.48279
G1 X118.768 Y101.918 E6.50237
G1 X118.768 Y103.082 E6.54353
G1 X118.714 Y103.633 E6.56311
G1 X118.486 Y104.783 E6.60456
G1 X118.325 Y105.315 E6.62421
G1 X117.88 Y106.391 E6.66539
G1 X117.617 Y106.883 E6.68511
G1 X116.965 Y107.859 E6.72662
G1 X116.613 Y108.289 E6.74627
G1 X115.789 Y109.113 E6.78747
G1 X115.359 Y109.465 E6.80712
G1 X114.558 Y110 E6.84118
G1 X115.359 Y110.535 E6.87524
G1 X115.789 Y110.887 E6.89489
G1 X116.613 Y111.711 E6.93609
G1 X116.965 Y112.141 E6.95574
G1 X117.5 Y112.942 E6.9898
G1 X118.035 Y112.141 E7.02386
G1 X118.387 Y111.711 E7.04351
G1 X119.211 Y110.887 E7.08472
G1 X119.641 Y110.535 E7.10437
G1 X120.617 Y109.883 E7.14587
G1 X121.109 Y109.62 E7.1656
G1 X122.185 Y109.175 E7.20677
G1 X122.717 Y109.014 E7.22642
G1 X123.867 Y108.786 E7.26788
G1 X124.418 Y108.732 E7.28746
G1 X125.582 Y108.732 E7.32861
G1 X126.133 Y108.786 E7.34819
G1 X127.283 Y109.014 E7.38965
G1 X127.815 Y109.175 E7.4093
G1 X128.891 Y109.62 E7.45047
G1 X129.383 Y109.883 E7.4702
G1 X130.359 Y110.535 E7.5117
G1 X130.789 Y110.887 E7.53135
G1 X131.613 Y111.711 E7.57256
G1 X131.965 Y112.141 E7.59221
G1 X132.617 Y113.117 E7.63371
G1 X132.88 Y113.609 E7.65344
G1 X133.325 Y114.685 E7.69461
G1 X133.486 Y115.217 E7.71426
G1 X133.714 Y116.367 E7.75572
G1 X133.768 Y116.918 E7.77529
G1 X133.768 Y118.082 E7.81645
G1 X133.714 Y118.633 E7.83603
G1 X133.486 Y119.783 E7.87748
G1 X133.325 Y120.315 E7.89714
G1 X132.88 Y121.391 E7.93831
G1 X132.617 Y121.883 E7.95804
G1 X131.965 Y122.859 E7.99954
G1 X131.613 Y123.289 E8.01919
G1 X130.789 Y124.113 E8.06039
G1 X130.359 Y124.465 E8.08004
G1 X129.558 Y125 E8.1141
G1 X130.359 Y125.535 E8.14816
G1 X130.789 Y125.887 E8.16781
G1 X131.613 Y126.711 E8.20902
G1 X131.965 Y127.141 E8.22867
G1 X132.617 Y128.117 E8.27017
G1 X132.88 Y128.609 E8.2899
G1 X133.325 Y129.685 E8.33107
G1 X133.486 Y130.217 E8.35072
G1 X133.714 Y131.367 E8.39218
G1 X133.768 Y131.918 E8.41175
G1 X133.768 Y133.082 E8.45291
G1 X133.714 Y133.633 E8.47249
G1 X133.486 Y134.783 E8.51395
G1 X133.325 Y135.315 E8.5336
G1 X132.88 Y136.391 E8.57477
G1 X132.617 Y136.883 E8.5945
G1 X131.965 Y137.859 E8.636
G1 X131.613 Y138.289 E8.65565
G1 X130.789 Y139.113 E8.69686
G1 X130.359 Y139.465 E8.71651
G1 X129.383 Y140.117 E8.75801
G1 X128.891 Y140.38 E8.77774
G1 X127.815 Y140.825 E8.81891
G1 X127.283 Y140.986 E8.83856
G1 X126.133 Y141.214 E8.88002
G1 X125.582 Y141.268 E8.89959
G1 X124.418 Y141.268 E8.94075
G1 X123.867 Y141.214 E8.96033
G1 X122.717 Y140.986 E9.00178
G1 X122.185 Y140.825 E9.02144
G1 X121.109 Y140.38 E9.06261
G1 X120.617 Y140.117 E9.08234
G1 X119.641 Y139.465 E9.12384
G1 X119.211 Y139.113 E9.14349
G1 X118.387 Y138.289 E9.18469
G1 X118.035 Y137.859 E9.20434
G1 X117.383 Y136.883 E9.24585
G1 X117.12 Y136.391 E9.26557
G1 X116.675 Y135.315 E9.30675
G1 X116.514 Y134.783 E9.3264
G1 X116.286 Y133.633 E9.36785
G1 X116.232 Y133.082 E9.38743
G1 X116.232 Y131.918 E9.42859
G1 X116.286 Y131.367 E9.44817
G1 X116.514 Y130.217 E9.48962
G1 X116.675 Y129.685 E9.50928
G1 X117.12 Y128.609 E9.55045
G1 X117.383 Y128.117 E9.57017
G1 X118.035 Y127.141 E9.61168
G1 X118.387 Y126.711 E9.63133
G1 X119.211 Y125.887 E9.67253
G1 X119.641 Y125.535 E9.69218
G1 X120.442 Y125 E9.72624
G1 X119.641 Y124.465 E9.7603
G1 X119.211 Y124.113 E9.77995
G1 X118.387 Y123.289 E9.82116
G1 X118.035 Y122.859 E9.84081
G1 X117.5 Y122.058 E9.87486
G1 X116.965 Y122.859 E9.90892
G1 X116.613 Y123.289 E9.92857
G1 X115.789 Y124.113 E9.96978
G1 X115.359 Y124.465 E9.98943
G1 X114.383 Y125.117 E10.03093
G1 X113.891 Y125.38 E10.05066
G1 X112.815 Y125.825 E10.09183
G1 X112.283 Y125.986 E10.11148
G1 X111.133 Y126.214 E10.15294
G1 X110.582 Y126.268 E10.17252
G1 X109.418 Y126.268 E10.21367
G1 X108.867 Y126.214 E10.23325
G1 X107.717 Y125.986 E10.27471
G1 X107.185 Y125.825 E10.29436
G1 X106.109 Y125.38 E10.33553
G1 X105.617 Y125.117 E10.35526
G1 X104.641 Y124.465 E10.39676
G1 X104.211 Y124.113 E10.41641
G1 X103.387 Y123.289 E10.45762
G1 X103.035 Y122.859 E10.47727
G1 X102.383 Y121.883 E10.51877
G1 X102.12 Y121.391 E10.5385
G1 X101.675 Y120.315 E10.57967
G1 X101.514 Y119.783 E10.59932
G1 X101.286 Y118.633 E10.64078
G1 X101.232 Y118.082 E10.66035
G1 X101.232 Y116.918 E10.70151
G1 X101.286 Y116.367 E10.72109
G1 X101.514 Y115.217 E10.76254
G1 X101.675 Y114.685 E10.7822
G1 X102.12 Y113.609 E10.82337
G1 X102.383 Y113.117 E10.8431
G1 X103.035 Y112.141 E10.8846
G1 X103.387 Y111.711 E10.90425
G1 X104.211 Y110.887 E10.94546
G1 X104.641 Y110.535 E10.9651
G1 X105.442 Y110 E10.99916
G1 X104.641 Y109.465 E11.03322
G1 X104.211 Y109.113 E11.05287
G1 X103.387 Y108.289 E11.09408
G1 X103.035 Y107.859 E11.11373
G1 X102.383 Y106.883 E11.15523
G1 X102.12 Y106.391 E11.17496
G1 X101.675 Y105.315 E11.21613
G1 X101.514 Y104.783 E11.23578
G1 X101.286 Y103.633 E11.27724
G1 X101.232 Y103.082 E11.29682
G1 X101.232 Y101.918 E11.33797
G1 X101.286 Y101.367 E11.35755
G1 X101.514 Y100.217 E11.39901
G1 X101.675 Y99.685 E11.41866
G1 X102.12 Y98.609 E11.45983
G1 X102.383 Y98.117 E11.47956
G1 X103.035 Y97.141 E11.52106
G1 X103.387 Y96.711 E11.54071
G0 F6000 X103.578 Y96.902
G1 F900 X104.402 Y96.078 E11.58192
G1 X104.791 Y95.759 E11.59971
G1 X105.767 Y95.107 E11.64121
G1 X106.212 Y94.87 E11.65904
G1 X107.288 Y94.425 E11.70021
G1 X107.769 Y94.279 E11.71798
G1 X108.919 Y94.051 E11.75944
G1 X109.418 Y94.002 E11.77717
G1 X110.582 Y94.002 E11.81833
G1 X111.081 Y94.051 E11.83606
G1 X112.231 Y94.279 E11.87751
G1 X112.712 Y94.425 E11.89528
G1 X113.788 Y94.87 E11.93646
G1 X114.233 Y95.107 E11.95428
G1 X115.209 Y95.759 E11.99579
G1 X115.598 Y96.078 E12.01358
G1 X116.422 Y96.902 E12.05478
G1 X116.741 Y97.291 E12.07257
G1 X117.393 Y98.267 E12.11407
G1 X117.63 Y98.712 E12.1319
G1 X118.075 Y99.788 E12.17307
G1 X118.221 Y100.269 E12.19085
G1 X118.449 Y101.419 E12.2323
G1 X118.498 Y101.918 E12.25003
G1 X118.498 Y103.082 E12.29119
G1 X118.449 Y103.581 E12.30892
G1 X118.221 Y104.731 E12.35038
G1 X118.075 Y105.212 E12.36815
G1 X117.63 Y106.288 E12.40932
G1 X117.393 Y106.733 E12.42715
G1 X116.741 Y107.709 E12.46865
G1 X116.422 Y108.098 E12.48644
G1 X115.598 Y108.922 E12.52765
G1 X115.209 Y109.241 E12.54543
G1 X114.073 Y110 E12.59374
G1 X115.209 Y110.759 E12.64205
G1 X115.598 Y111.078 E12.65984
G1 X116.422 Y111.902 E12.70105
G1 X116.741 Y112.291 E12.71884
G1 X117.5 Y113.427 E12.76714
G1 X118.259 Y112.291 E12.81545
G1 X118.578 Y111.902 E12.83324
G1 X119.402 Y111.078 E12.87445
G1 X119.791 Y110.759 E12.89224
G1 X120.767 Y110.107 E12.93374
G1 X121.212 Y109.87 E12.95157
G1 X122.288 Y109.425 E12.99274
G1 X122.769 Y109.279 E13.01051
G1 X123.919 Y109.051 E13.05197
G1 X124.418 Y109.002 E13.0697
G1 X125.582 Y109.002 E13.11086
G1 X126.081 Y109.051 E13.12859
G1 X127.231 Y109.279 E13.17004
G1 X127.712 Y109.425 E13.18782
G1 X128.788 Y109.87 E13.22899
G1 X129.233 Y110.107 E13.24682
G1 X130.209 Y110.759 E13.28832
G1 X130.598 Y111.078 E13.30611
G1 X131.422 Y111.902 E13.34731
G1 X131.741 Y112.291 E13.3651
G1 X132.393 Y113.267 E13.4066
G1 X132.63 Y113.712 E13.42443
G1 X133.075 Y114.788 E13.4656
G1 X133.221 Y115.269 E13.48338
G1 X133.449 Y116.419 E13.52483
G1 X133.498 Y116.918 E13.54256
G1 X133.498 Y118.082 E13.58372
G1 X133.449 Y118.581 E13.60145
G1 X133.221 Y119.731 E13.64291
G1 X133.075 Y120.212 E13.66068
G1 X132.63 Y121.288 E13.70185
G1 X132.393 Y121.733 E13.71968
G1 X131.741 Y122.709 E13.76118
G1 X131.422 Y123.098 E13.77897
G1 X130.598 Y123.922 E13.82018
G1 X130.209 Y124.241 E13.83797
G1 X129.073 Y125 E13.88627
G1 X130.209 Y125.759 E13.93458
G1 X130.598 Y126.078 E13.95237
G1 X131.422 Y126.902 E13.99358
G1 X131.741 Y127.291 E14.01137
G1 X132.393 Y128.267 E14.05287
G1 X132.63 Y128.712 E14.0707
G1 X133.075 Y129.788 E14.11187
G1 X133.221 Y130.269 E14.12964
G1 X133.449 Y131.419 E14.1711
G1 X133.498 Y131.918 E14.18883
G1 X133.498 Y133.082 E14.22999
G1 X133.449 Y133.581 E14.24772
G1 X133.221 Y134.731 E14.28917
G1 X133.075 Y135.212 E14.30695
G1 X132.63 Y136.288 E14.34812
G1 X132.393 Y136.733 E14.36595
G1 X131.741 Y137.709 E14.40745
G1 X131.422 Y138.098 E14.42524
G1 X130.598 Y138.922 E14.46644
G1 X130.209 Y139.241 E14.48423
G1 X129.233 Y139.893 E14.52573
G1 X128.788 Y140.13 E14.54356
G1 X127.712 Y140.575 E14.58473
G1 X127.231 Y140.721 E14.60251
G1 X126.081 Y140.949 E14.64396
G1 X125.582 Y140.998 E14.66169
G1 X124.418 Y140.998 E14.70285
G1 X123.919 Y140.949 E14.72058
G1 X122.769 Y140.721 E14.76204
G1 X122.288 Y140.575 E14.77981
G1 X121.212 Y140.13 E14.82098
G1 X120.767 Y139.893 E14.83881
G1 X119.791 Y139.241 E14.88031
G1 X119.402 Y138.922 E14.8981
G1 X118.578 Y138.098 E14.93931
G1 X118.259 Y137.709 E14.9571
G1 X117.607 Y136.733 E14.9986
G1 X117.37 Y136.288 E15.01643
G1 X116.925 Y135.212 E15.0576
G1 X116.779 Y134.731 E15.07537
G1 X116.551 Y133.581 E15.11683
G1 X116.502 Y133.082 E15.13456
G1 X116.502 Y131.918 E15.17572
G1 X116.551 Y131.419 E15.19345
G1 X116.779 Y130.269 E15.2349
G1 X116.925 Y129.788 E15.25267
G1 X117.37 Y128.712 E15.29385
